mobile/24/svg/private-mode-circle-fill-24.svg

<svg width="24" height="24" viewBox="0 0 24 24" fill="none" xmlns="http://www.w3.org/2000/svg">
<path d="M10.593 12.233C10.193 12.685 9.57299 12.976 8.87599 12.976C8.17899 12.976 7.55899 12.685 7.15799 12.233C6.94799 11.996 6.94799 11.622 7.15799 11.385C7.55799 10.933 8.17799 10.642 8.87599 10.642C9.57299 10.642 10.193 10.933 10.593 11.385C10.802 11.622 10.802 11.996 10.593 12.233Z" fill="black"/>
<path d="M15.124 12.976C14.427 12.976 13.807 12.685 13.407 12.233C13.198 11.996 13.198 11.622 13.407 11.385C13.807 10.933 14.427 10.642 15.124 10.642C15.822 10.642 16.442 10.933 16.842 11.385C17.052 11.622 17.052 11.996 16.842 12.233C16.441 12.685 15.821 12.976 15.124 12.976Z" fill="black"/>
<path fill-rule="evenodd" clip-rule="evenodd" d="M2 12C2 17.514 6.486 22 12 22C17.514 22 22 17.514 22 12C22 6.486 17.514 2 12 2C6.486 2 2 6.486 2 12ZM15.122 8.23206H16.743C17.575 8.23206 18.25 8.90706 18.248 9.73906V12.2441C18.248 13.5041 17.619 14.6801 16.57 15.3791L16.368 15.5141C16.12 15.6791 15.83 15.7671 15.532 15.7671H15.108C14.792 15.7671 14.484 15.6681 14.227 15.4831L12.819 14.4681C12.631 14.3331 12.406 14.2601 12.175 14.2601H11.823C11.592 14.2601 11.367 14.3331 11.179 14.4681L9.771 15.4831C9.515 15.6671 9.206 15.7671 8.89 15.7671H8.466C8.168 15.7671 7.878 15.6791 7.63 15.5141L7.428 15.3791C6.38 14.6811 5.75 13.5041 5.75 12.2441V9.73906C5.75 8.90706 6.425 8.23206 7.257 8.23206H8.878C9.758 8.23206 10.59 8.63406 11.138 9.32306C11.347 9.58606 11.664 9.73906 12 9.73906C12.336 9.73906 12.653 9.58606 12.862 9.32306C13.41 8.63406 14.242 8.23206 15.122 8.23206Z" fill="black"/>
</svg>

<svg width="24" height="24" fill="none" xmlns="http://www.w3.org/2000/svg"><path d="M10.593 12.233c-.4.452-1.02.743-1.717.743-.697 0-1.317-.291-1.718-.743a.65.65 0 0 1 0-.848c.4-.452 1.02-.743 1.718-.743.697 0 1.317.291 1.717.743a.652.652 0 0 1 0 .848zM15.124 12.976c-.697 0-1.317-.291-1.717-.743a.652.652 0 0 1 0-.848c.4-.452 1.02-.743 1.717-.743.698 0 1.318.291 1.718.743a.65.65 0 0 1 0 .848c-.401.452-1.021.743-1.718.743z" fill="#000"/><path fill-rule="evenodd" clip-rule="evenodd" d="M2 12c0 5.514 4.486 10 10 10s10-4.486 10-10S17.514 2 12 2 2 6.486 2 12zm13.122-3.768h1.621c.832 0 1.507.675 1.505 1.507v2.505c0 1.26-.629 2.436-1.678 3.135l-.202.135a1.507 1.507 0 0 1-.836.253h-.424c-.316 0-.624-.099-.881-.284l-1.408-1.015a1.104 1.104 0 0 0-.644-.208h-.352c-.231 0-.456.073-.644.208l-1.408 1.015a1.512 1.512 0 0 1-.881.284h-.424c-.298 0-.588-.088-.836-.253l-.202-.135a3.767 3.767 0 0 1-1.678-3.135V9.74c0-.832.675-1.507 1.507-1.507h1.621c.88 0 1.712.402 2.26 1.091a1.1 1.1 0 0 0 1.724 0 2.888 2.888 0 0 1 2.26-1.09z" fill="#000"/></svg>
